src/images/svg/symbols/markets-stocks-and-indices/american-stocks/stocks-paypal.svg

<svg width="32" height="32" viewBox="0 0 32 32" fill="none" xmlns="http://www.w3.org/2000/svg">
<path d="M0 16C0 7.16344 7.16344 0 16 0C24.8366 0 32 7.16344 32 16C32 24.8366 24.8366 32 16 32C7.16344 32 0 24.8366 0 16Z" fill="url(#paint0_linear_13177_23360)"/>
<path opacity="0.68" d="M23.2744 11.0814C23.5184 9.52543 23.2727 8.46695 22.4312 7.50787C21.5047 6.45224 19.831 6 17.6896 6H11.4736C11.036 6 10.6632 6.3184 10.5952 6.75088L8.0066 23.1643C7.95567 23.4882 8.20603 23.781 8.5336 23.781H12.3711L12.1063 25.4606C12.0617 25.7439 12.2805 26 12.5673 26H15.802C16.1848 26 16.5107 25.7215 16.5704 25.3432L16.6022 25.1786L17.2115 21.3146L17.2508 21.1011C17.3105 20.7231 17.6365 20.4442 18.0192 20.4442H18.503C21.6367 20.4442 24.0904 19.1712 24.8073 15.4893C25.107 13.9509 24.9519 12.6667 24.1597 11.7638C23.9203 11.4913 23.6221 11.2655 23.2744 11.0814Z" fill="white"/>
<path d="M14.3708 11.102C14.4117 10.842 14.5787 10.6289 14.8034 10.5214C14.9055 10.4725 15.0198 10.4452 15.1394 10.4452H20.0119C20.5893 10.4452 21.1275 10.4831 21.6194 10.5623C21.76 10.5849 21.8969 10.611 22.0299 10.6406C22.1627 10.6701 22.2919 10.7029 22.4168 10.7396C22.4793 10.7577 22.5406 10.777 22.6011 10.797C22.8427 10.8773 23.0678 10.9718 23.2748 11.0816C23.5188 9.52564 23.2732 8.46715 22.4316 7.50808C21.5047 6.45224 19.831 6 17.6896 6H11.4736C11.036 6 10.6632 6.3184 10.5952 6.75088L8.0066 23.1643C7.95567 23.4882 8.20603 23.781 8.5336 23.781H12.3711L13.3351 17.6682L14.3708 11.102Z" fill="white"/>
<path opacity="0.7" d="M23.2744 11.0814C23.5184 9.52543 23.2727 8.46695 22.4312 7.50787C21.5047 6.45224 19.831 6 17.6896 6H11.4736C11.036 6 10.6632 6.3184 10.5952 6.75088L8.0066 23.1643C7.95567 23.4882 8.20603 23.781 8.5336 23.781H12.3711L13.3351 17.6682L13.3051 17.8599C13.3734 17.4276 13.7427 17.109 14.1805 17.109H16.0045C19.5866 17.109 22.3915 15.6537 23.2108 11.445C23.2353 11.3207 23.2558 11.1999 23.2744 11.0814Z" fill="white"/>
<defs>
<linearGradient id="paint0_linear_13177_23360" x1="32" y1="9.53674e-07" x2="-9.53674e-07" y2="32" gradientUnits="userSpaceOnUse">
<stop stop-color="#004090"/>
<stop offset="1" stop-color="#009EDF"/>
</linearGradient>
</defs>
</svg>

<svg width="32" height="32" fill="none" xmlns="http://www.w3.org/2000/svg"><path d="M0 16C0 7.163 7.163 0 16 0s16 7.163 16 16-7.163 16-16 16S0 24.837 0 16Z" fill="url(#a)"/><path opacity=".68" d="M23.274 11.081c.244-1.556-.001-2.614-.843-3.573C21.505 6.452 19.831 6 17.69 6h-6.216a.89.89 0 0 0-.879.75L8.007 23.165c-.051.324.199.617.527.617h3.837l-.265 1.68a.467.467 0 0 0 .461.539h3.235a.778.778 0 0 0 .768-.657l.032-.164.61-3.864.039-.214a.778.778 0 0 1 .768-.657h.484c3.134 0 5.587-1.273 6.304-4.955.3-1.538.145-2.822-.647-3.725a3.084 3.084 0 0 0-.886-.683Z" fill="#fff"/><path d="M14.37 11.102a.777.777 0 0 1 .77-.657h4.872c.577 0 1.116.038 1.607.117a7.014 7.014 0 0 1 .798.178 4.393 4.393 0 0 1 .858.342c.244-1.556-.002-2.615-.843-3.574C21.505 6.452 19.83 6 17.69 6h-6.216a.89.89 0 0 0-.879.75L8.007 23.165c-.051.324.199.617.527.617h3.837l.964-6.113 1.036-6.566Z" fill="#fff"/><path opacity=".7" d="M23.274 11.081c.244-1.556-.001-2.614-.843-3.573C21.505 6.452 19.831 6 17.69 6h-6.216a.89.89 0 0 0-.879.75L8.007 23.165c-.051.324.199.617.527.617h3.837l.964-6.113-.03.192a.886.886 0 0 1 .876-.751h1.824c3.582 0 6.387-1.455 7.206-5.664.024-.124.045-.245.063-.364Z" fill="#fff"/><defs><linearGradient id="a" x1="32" y1="0" x2="0" y2="32" gradientUnits="userSpaceOnUse"><stop stop-color="#004090"/><stop offset="1" stop-color="#009EDF"/></linearGradient></defs></svg>
